X:1
T:Give My Regards To Broadway
T:Give My Regards To Broadway
T:George M. Cohan
T:1904-Jedit
T:1904-Jedit
T:1904-Jedit
T:1904-Jedit
T:1904-Jedit
C:George M. Cohan
Z:1904-Jedit
%%score 1 { ( 2 4 ) | ( 3 5 ) }
L:1/8
Q:1/4=120
M:2/4
K:C
V:1 treble nm="Voice"
V:2 treble nm="Piano"
V:4 treble 
V:3 bass 
V:5 bass 
V:1
"^Tempo di Marcia." z4 | z4 | z4 | z4 | z4 | z4 | z4 | z4 || z4 | z2 E F || G2 A2 | c2 d2 | e c3 | %13
w: |||||||||Did you|ev- er|see two|Yan- kees|
w: |||||||||Say hel-|lo to|dear old|Con- ey|
 d2 e2 | d2 c2 | A2 B2 | c4- | c2 E F | G2 A2 | c2 d2 | e c3 | d2 e2 | A2 d2 | d3 e | d4- | %25
w: part up-|on a|for- eign|shore.|_ When the|good ship's|just a-|bout to|start for|Old New|York once|more?|
w: Isle, if|there you|chance to|be,|_ When you're|at the|Wal- dorf|have a|smile and|charge it|up to|me;|
 d2 (E F) | G2 A2 | c2 d2 | e c3 | d2 e2 | d2 c2 | A2 B2 | c4- | c z cd | e d2 c | A2 c d | %36
w: _ With *|tear- dimmed|eye they|say good-|bye, they're|friends with|out a|doubt;|_ When the|man on the|pier * *|
w: _ Men- tion|my name|ev- 'ry|place you|go, as|'round the|town you|roam;|_ Wish you'd|call on my|gal, Now re-|
 e d2 c | A2 Bc | d4 | d4 | d4- | d z z2 ||"^CHORUS." G A2 B | c2 d2 | c4 | B3 G | A A A A | %47
w: Shouts, "Let them|clear," as the|ship|strikes|out.|_|Give my re-|gards to|Broad-|way, re-|mem- ber me to|
w: mem- ber, old|pal, when you|get|back|home.|_||||||
 B2 B2 | G4- | G4 | G A2 B | c2 A2 | B2 c2 | dB AG | c2 A2 | B2 c2 | d4- | d z z2 | G A2 B | %59
w: Her- ald|Square,|_|Tell all the|gang at|For- ty-|Sec- ond street, that|I will|soon be|there;|_|Whis- per of|
w: ||||||||||||
 c2 d2 | c4 | B3 G | AA AA | B2 B2 | G4- | G3 z | e ^c2 A | f2 e2 | d2 ^c2 | d=c dc | e3 c | %71
w: how I'm|yearn-|ing, To|min- gle with the|old time|throng,|_|Give my re-|gards to|old Broad-|way and say that|I'll be|
w: ||||||||||||
 c2 d2 |1 c4- | c z z2 :|2 c4- | c3 z |] %76
w: there e'er|long.|_|long.|_|
w: |||||
V:2
!mf! [EG] [EA]2 [EB] | [EGc]2 [EGd]2 | c4 | [DFB] z z2 | [Fcd] [Fcd]2 [Fcd] | [GBg] z ((([Fcd]2 | %6
 [GBg]))) z ((([_B,^CG]2 | [=B,DG]))) z z2 ||!p! z [G,CE] z [G,CE] | z [G,CE] [CE][DF] || %10
!p! [EG]2 [EA]2 | [Ec]2 [Fd]2 | [Ge] [Ec]3 | [E_Bd]2 [EBe]2 | [FAd]2 [FAc]2 | [FA]2 [FB]2 | %16
!<(! [EGc]4-!<)! | [EGc]2!>(! [CE][DF]!>)! | [EG]2 [EA]2 | [Ec]2 [Fd]2 | [Ge] [Ec]3 | %21
 [EAd]2 [EAe]2 | [^FA]2 [Fd]2 | [^Fcd]3 [Fce] |!<(! [FBd][FG]/[FA]/ [FB][FA]!<)! | %25
!>(! Gg [CE][DF]!>)! | [EG]2 [EA]2 | [Ec]2 [Fd]2 | [Ge] [Ec]3 | [E_Bd]2 [EBe]2 | [FAd]2 [FAc]2 | %31
 [FA]2 [FB]2 | [EGc-]4 | [EGc] z [EGc][FGd] | [Ee] [Ed]2 [Ec] | A2 cd | [Ee] [Ed]2 [Ec] | A2 Bc | %38
 [^Fcd]4 | [^Fcd]4 | [=FBd] z ((([Ad]2 | [GBg]))) z z2 ||!p! [EG]!f! [EA]2 [EB] | [EGc]2 [EGd]2 | %44
 c4 | [DFB]3 [FG] | [FA][FA] [FA][FA] | [FB]2 [^FB]2 | G4- | G4 | [EG] [EA]2 [EB] | [Ec]2 [_EGA]2 | %52
!<(! B2 c2!<)! |!>(! [Dd][DB] [DA][DG]!>)! | [^Fc]2 [FA]2 | [^FB]2 [Fc]2 | %56
!<(! [=Fd][FG]/[FA]/ [FB][FA]!<)! |!>(! [FG] z !>![GBg] z!>)! | [EG] [EA]2 [EB] | [EGc]2 [EGd]2 | %60
 c4 | [DFB]3 [FG] | [FA][FA] [FA][FA] | [FB]2 [^FB]2 |!<(! [EG]>[EG] [EG][EG]!<)! | %65
!>(! [EG]3 z!>)! | [Ge] [G^c]2 [GA] | [Af]2 [Ge]2 | d2 ^c2 | d=c dc | [Ee]3 [Ec] | %71
 [D^FAc]2 [E=FBd]2 |1!<(! [EGc]G/G/ GA!<)! |!f! EF DG :|2 [Ec](3E/F/^F/ G[=FG] | %75
 [EGc] z [egc'] z |] %76
V:3
 C,[E,G,C] G,,[E,G,C] | C,[E,G,C] G,,[E,G,C] | [_A,,_A,]4 | [G,,G,] z !>![G,,,G,,] z | %4
 [_A,,_A,] [A,,A,]2 [A,,A,] | [G,,G,] z (([_A,,_A,]2 | [G,,G,])) z (([G,,E,]2 | %7
 [G,,F,])) z [G,,,G,,] z || C, z G,, z | C, z G,, z || C,[E,G,C] G,,[E,G,C] | %11
 C,[E,G,C] G,,[F,G,B,] | C,[E,G,C] G,,[E,G,C] | C,[E,_B,C] C,[E,B,C] | F,[A,C] C,[F,A,C] | %15
 F,[A,C] F,[A,C] | C,C B,A, | G,F, E,D, | C,[E,G,C] G,,[F,G,B,] | C,[E,G,C] G,,[F,G,B,] | %20
 C,[E,G,C] G,,[E,G,C] | C,[E,A,C] C,[E,A,C] | D,,[D,^F,C] A,,[D,F,C] | A,,[D,^F,C] D,,[D,F,C] | %24
 z B,/C/ DC | B,2 z2 | C,[E,G,C] G,,[E,G,C] | C,[E,G,C] G,,[F,G,B,] | C,[E,G,C] G,,[E,G,C] | %29
 C,[E,_B,C] C,[E,B,C] | F,[A,C] C,[F,A,C] | F,[A,C] F,[A,C] | C,C B,A, | G,F, E,D, | %34
 [C,G,] [C,G,]2 [C,G,] | [C,A,]4 | [C,G,] [C,G,]2 [C,G,] | [C,^F,]4 | [A,,A,] [D,D]2 [A,,A,] | %39
 [_A,,_A,] [D,D]2 [A,,A,] | [G,,G,] z ((([G,CF]2 | [G,B,F]))) z !>![G,,,G,,] z || %42
 C,[E,A,C] C,[E,A,C] | C,[E,A,C] C,[E,A,C] | [_A,,_A,]4 | [G,,G,][F,G,B,] G,,[F,G,B,] | %46
 D,[F,G,B,] G,,[F,G,B,] | D,[F,G,B,] ^D,[F,A,C] | [E,C]2 [^C,^A,]2 | %49
 [D,B,]!>![B,,B,] !>![A,,A,]!>![G,,G,] | C,[E,G,C] G,,[E,G,C] | C,[E,G,C] C,[_E,G,C] | %52
 [G,,G,]2 [A,,A,]2 | [B,,B,][G,,G,] [A,,A,][B,,B,] | [A,,A,][D,^F,C] D,,[D,F,C] | %55
 ^F,,[D,^F,C] D,,[D,F,C] | [G,,G,][G,B,]/[G,C]/ [G,D][G,C] | [G,B,] z !>![G,,G,] z | %58
 C,[E,A,C] C,[E,A,C] | C,[E,A,C] C,[E,A,C] | [_A,,_A,]4 | [G,,G,][F,G,B,] G,,[F,G,B,] | %62
 D,[F,G,B,] G,,[F,G,B,] | D,[F,G,B,] ^D,[F,A,C] | [E,C]C, E,G, | [C,C][C,C] [B,,B,][_B,,_B,] | %66
 [A,,A,][G,A,C] E,[G,A,C] | z [A,,A,] [B,,B,][^C,^C] | [D,D]2 [E,E]2 | [F,F]2 [_A,,_A,]2 | %70
 [G,,G,][E,G,C] [G,,G,][E,G,C] | [A,,A,]2 [G,,G,]2 |1 [C,,C,]G,/G,/ G,A, | E,F, D,[G,,G,] :|2 %74
 [C,,C,](3E,/F,/^F,/ G,[G,B,] | [C,C] z [C,,C,] z |] %76
V:4
 x4 | x4 | z [DF]/[DF]/ [DF][DF] | x4 | x4 | x4 | x4 | x4 || x4 | x4 || x4 | x4 | x4 | x4 | x4 | %15
 x4 | x4 | x4 | x4 | x4 | x4 | x4 | x4 | x4 | x4 | F2 x2 | x4 | x4 | x4 | x4 | x4 | x4 | x4 | x4 | %34
 x4 | F4 | x4 | ^D4 | x4 | x4 | x4 | x4 || x4 | x4 | z [DF]/[DF]/ [DF][DF] | z g/a/ g z | x4 | x4 | %48
 E2 E2 | F4 | x4 | x4 | z [DG] z [D^F] | x4 | x4 | x4 | x4 | x4 | x4 | x4 | z [DF]/[DF]/ [DF][DF] | %61
 z g/a/ g z | x4 | x4 | x4 | x4 | x4 | x4 | z [FA] z [GA] | A2 F2 | x4 | x4 |1 x4 | x4 :|2 x4 | %75
 x4 |] %76
V:5
 x4 | x4 | x4 | x4 | x4 | x4 | x4 | x4 || x4 | x4 || x4 | x4 | x4 | x4 | x4 | x4 | x4 | x4 | x4 | %19
 x4 | x4 | x4 | x4 | x4 | G,4- | G,2 x2 | x4 | x4 | x4 | x4 | x4 | x4 | x4 | x4 | x4 | x4 | x4 | %37
 x4 | x4 | x4 | x4 | x4 || x4 | x4 | x4 | x4 | x4 | D,2 ^D,2 | x4 | x4 | x4 | x4 | x4 | x4 | x4 | %55
 x4 | x4 | x4 | x4 | x4 | x4 | x4 | x4 | D,2 ^D,2 | x4 | x4 | x4 | x4 | x4 | x4 | x4 | x4 |1 x4 | %73
 x4 :|2 x4 | x4 |] %76

